images/user-icon.svg

<svg width="17" height="20" viewBox="0 0 17 20" fill="none" xmlns="http://www.w3.org/2000/svg">
<path d="M8.5 9.71429C11.1828 9.71429 13.3571 7.53996 13.3571 4.85714C13.3571 2.17433 11.1828 0 8.5 0C5.81719 0 3.64286 2.17433 3.64286 4.85714C3.64286 7.53996 5.81719 9.71429 8.5 9.71429ZM11.9 10.9286H11.2663C10.4239 11.3156 9.48661 11.5357 8.5 11.5357C7.51339 11.5357 6.57991 11.3156 5.73371 10.9286H5.1C2.28437 10.9286 0 13.2129 0 16.0286V17.6071C0 18.6127 0.815848 19.4286 1.82143 19.4286H15.1786C16.1842 19.4286 17 18.6127 17 17.6071V16.0286C17 13.2129 14.7156 10.9286 11.9 10.9286Z" fill="#2D7CD1"/>
</svg>

<?xml version="1.0" encoding="UTF-8"?>
<svg id="_圖層_1" data-name="圖層_1" xmlns="http://www.w3.org/2000/svg" version="1.1" viewBox="0 0 17 19.43">
  <!-- Generator: Adobe Illustrator 30.6.0, SVG Export Plug-In . SVG Version: 2.1.4 Build 109)  -->
  <defs>
    <style>
      .st0 {
        fill: #2d7cd1;
      }
    </style>
  </defs>
  <path class="st0" d="M8.5,9.71c2.68,0,4.86-2.17,4.86-4.86S11.18,0,8.5,0,3.64,2.17,3.64,4.86s2.17,4.86,4.86,4.86ZM11.9,10.93h-.63c-.84.39-1.78.61-2.77.61s-1.92-.22-2.77-.61h-.63c-2.82,0-5.1,2.28-5.1,5.1v1.58c0,1.01.82,1.82,1.82,1.82h13.36c1.01,0,1.82-.82,1.82-1.82v-1.58c0-2.82-2.28-5.1-5.1-5.1Z"/>
</svg>
